X:1
T: Long Live the Queen
C:
R:Reel
Q: 232
K:A
M:4/4
L:1/8
|:e2|a4 e3d|c6 A2|Bc de fg ab|g2 e2-e^e fg|
a2 ec f2 dB|e2 cA GA Bc|de fg ab c'd'|e'6 e2|
d3c Bc de|c2 A4 e2|f2 ed ef ga|b6 e2|
a2 ec f2 dB|e2 cA GA Be|f4 g3e|a6:|
